icons/device-line.svg

<svg xmlns="http://www.w3.org/2000/svg" width="24" height="24" fill="none"><g clip-path="url(#a)"><g><path fill="#121212" d="M19 8H21C21.2652 8 21.5196 8.10536 21.7071 8.29289C21.8946 8.48043 22 8.73478 22 9V21C22 21.2652 21.8946 21.5196 21.7071 21.7071C21.5196 21.8946 21.2652 22 21 22H13C12.7348 22 12.4804 21.8946 12.2929 21.7071C12.1054 21.5196 12 21.2652 12 21V20H4C3.73478 20 3.48043 19.8946 3.29289 19.7071C3.10536 19.5196 3 19.2652 3 19V3C3 2.73478 3.10536 2.48043 3.29289 2.29289C3.48043 2.10536 3.73478 2 4 2H18C18.2652 2 18.5196 2.10536 18.7071 2.29289C18.8946 2.48043 19 2.73478 19 3V8ZM17 8V4H5V18H12V9C12 8.73478 12.1054 8.48043 12.2929 8.29289C12.4804 8.10536 12.7348 8 13 8H17ZM14 10V20H20V10H14Z"/></g></g><defs><clipPath id="a"><rect width="24" height="24" fill="white"/></clipPath></defs></svg>

<svg width="24" height="24" fill="none" xmlns="http://www.w3.org/2000/svg"><g clip-path="url(#a)"><path d="M19 8h2a1 1 0 0 1 1 1v12a1 1 0 0 1-1 1h-8a1 1 0 0 1-1-1v-1H4a1 1 0 0 1-1-1V3a1 1 0 0 1 1-1h14a1 1 0 0 1 1 1v5Zm-2 0V4H5v14h7V9a1 1 0 0 1 1-1h4Zm-3 2v10h6V10h-6Z" /></g><defs><clipPath id="a"><path fill="#fff" d="M0 0h24v24H0z"/></clipPath></defs></svg>
